svgs/light/circle-parking.svg

<svg xmlns="http://www.w3.org/2000/svg" viewBox="0 0 512 512"><!--! Font Awesome Pro 6.3.0 by @fontawesome - https://fontawesome.com License - https://fontawesome.com/license (Commercial License) Copyright 2023 Fonticons, Inc. --><path d="M288 320H208V368C208 376.8 200.8 384 192 384C183.2 384 176 376.8 176 368V152C176 138.7 186.7 128 200 128H288C341 128 384 170.1 384 224C384 277 341 320 288 320zM288 288C323.3 288 352 259.3 352 224C352 188.7 323.3 160 288 160H208V288H288zM512 256C512 397.4 397.4 512 256 512C114.6 512 0 397.4 0 256C0 114.6 114.6 0 256 0C397.4 0 512 114.6 512 256zM256 32C132.3 32 32 132.3 32 256C32 379.7 132.3 480 256 480C379.7 480 480 379.7 480 256C480 132.3 379.7 32 256 32z"/></svg>

<svg xmlns="http://www.w3.org/2000/svg" viewBox="0 0 512 512"><!--! Font Awesome Pro 6.4.0 by @fontawesome - https://fontawesome.com License - https://fontawesome.com/license (Commercial License) Copyright 2023 Fonticons, Inc. --><path d="M480 256A224 224 0 1 0 32 256a224 224 0 1 0 448 0zM0 256a256 256 0 1 1 512 0A256 256 0 1 1 0 256zm208 32h80c35.3 0 64-28.7 64-64s-28.7-64-64-64H208V288zm80 32H208v48c0 8.8-7.2 16-16 16s-16-7.2-16-16V304 152c0-13.3 10.7-24 24-24h88c53 0 96 43 96 96s-43 96-96 96z"/></svg>
